packages/foundations/assets/icons/functional/images/maps/road_sign_24.svg

<svg width="24" height="24" viewBox="0 0 24 24" fill="none" xmlns="http://www.w3.org/2000/svg">
<g clip-path="url(#clip0_186_111)">
<path fill-rule="evenodd" clip-rule="evenodd" d="M16.5556 2.5C17.2399 2.5 17.8619 2.71803 18.3285 3.18525L21.0968 5.86393C21.5634 6.3 21.75 6.8918 21.75 7.48361C21.75 8.01311 21.5634 8.63607 21.0968 9.07213L18.3285 11.7508C17.8309 12.2492 17.2399 12.5 16.5556 12.5H12.25V19.5H15.2827C15.8114 19.5 16.2469 19.9738 16.2469 20.441C16.2469 21.0639 15.8114 21.5 15.2827 21.5H6.9456C6.41678 21.5 6.01248 21.0639 6.01248 20.441C6.01248 19.9738 6.41678 19.5 6.9456 19.5H10.2438L10.25 12.5H4.83169C3.36975 12.5 2.25 11.377 2.25 9.94426V5.02295C2.25 3.62131 3.36975 2.5 4.83169 2.5H16.5556ZM16.4001 4.5H5.20494C4.58286 4.5 4.27182 4.80492 4.27182 5.39672V9.57049C4.27182 10.1623 4.58286 10.5049 5.20494 10.5049H16.4001C16.8978 10.5049 17.2399 10.3803 17.5509 10.0377L19.4171 8.1377C19.6349 7.91967 19.75 7.70164 19.75 7.45246C19.75 7.23443 19.6349 7.01639 19.4171 6.79836L17.5509 4.96066C17.2088 4.61803 16.8978 4.5 16.4001 4.5Z" fill="#1A1C1F"/>
</g>
<defs>
<clipPath id="clip0_186_111">
<rect width="24" height="24" fill="white"/>
</clipPath>
</defs>
</svg>

<svg xmlns="http://www.w3.org/2000/svg" width="24" height="24" fill="none"><g clip-path="url(#a)"><path fill="#1A1C1F" fill-rule="evenodd" d="M16.556 2.5c.684 0 1.306.218 1.772.685l2.769 2.679c.466.436.653 1.028.653 1.62 0 .53-.187 1.152-.653 1.588l-2.769 2.679q-.746.748-1.772.749H12.25v7h3.033c.528 0 .964.474.964.941 0 .623-.436 1.059-.964 1.059H6.946c-.53 0-.934-.436-.934-1.059 0-.467.405-.941.934-.941h3.298l.006-7H4.832c-1.462 0-2.582-1.123-2.582-2.556V5.023C2.25 3.62 3.37 2.5 4.832 2.5zm-.156 2H5.205c-.622 0-.933.305-.933.897V9.57c0 .592.31.935.933.935H16.4c.498 0 .84-.125 1.15-.467l1.867-1.9c.218-.218.333-.436.333-.686 0-.218-.115-.436-.333-.654l-1.866-1.837c-.342-.343-.653-.461-1.15-.461" clip-rule="evenodd"/></g><defs><clipPath id="a"><path fill="#fff" d="M0 0h24v24H0z"/></clipPath></defs></svg>
